images/instagram-icon-white.svg

<svg viewBox="0 0 32.11 32.11" xmlns="http://www.w3.org/2000/svg"><path d="m25.76 16.05a9.71 9.71 0 1 1 -19.23-1.86h-6.53v12.9a5 5 0 0 0 5 5h22.09a5 5 0 0 0 5-5v-12.9h-6.51a9.76 9.76 0 0 1 .18 1.86zm1.33-16.05h-22.09a5 5 0 0 0 -5 5v5.44h8.13a9.7 9.7 0 0 1 15.85 0h8.13v-5.44a5 5 0 0 0 -5.02-5zm2.45 6.2a.9.9 0 0 1 -.9.9h-2.64a.9.9 0 0 1 -.9-.9v-2.69a.9.9 0 0 1 .9-.9h2.69a.9.9 0 0 1 .9.9zm-7.54 9.85a6 6 0 1 0 -6 6 6 6 0 0 0 6-6z" fill="#fff"/></svg>

<svg xmlns="http://www.w3.org/2000/svg" viewBox="0 0 32.11 32.11"><defs><style>.cls-1{fill:#fff;}</style></defs><title>instagram-icon-white</title><g id="Layer_2" data-name="Layer 2"><g id="Layer_2-2" data-name="Layer 2"><path class="cls-1" d="M25.76,16.05A9.71,9.71,0,1,1,6.53,14.19H0v12.9a5,5,0,0,0,5,5H27.09a5,5,0,0,0,5-5V14.19H25.58A9.76,9.76,0,0,1,25.76,16.05ZM27.09,0H5A5,5,0,0,0,0,5v5.44H8.13a9.7,9.7,0,0,1,15.85,0h8.13V5A5,5,0,0,0,27.09,0Zm2.45,6.2a.9.9,0,0,1-.9.9H26a.9.9,0,0,1-.9-.9V3.51a.9.9,0,0,1,.9-.9h2.69a.9.9,0,0,1,.9.9ZM22,16.05a6,6,0,1,0-6,6A6,6,0,0,0,22,16.05Z"/></g></g></svg>
